icon/pk/file-settings.svg

<svg viewBox="0 0 48 48" fill="none" xmlns="http://www.w3.org/2000/svg" height="1em" width="1em">
  <path d="M10 44H38C39.1046 44 40 43.1046 40 42V14H30V4H10C8.89543 4 8 4.89543 8 6V42C8 43.1046 8.89543 44 10 44Z" fill="#2F88FF" stroke="black" stroke-width="4" stroke-linecap="round" stroke-linejoin="round"/>
  <path d="M30 4L40 14" stroke="black" stroke-width="4" stroke-linecap="round" stroke-linejoin="round"/>
  <circle cx="24" cy="27" r="5" fill="#43CCF8" stroke="white" stroke-width="4"/>
  <path d="M24 19V22" stroke="white" stroke-width="4" stroke-linecap="round" stroke-linejoin="round"/>
  <path d="M24 32V35" stroke="white" stroke-width="4" stroke-linecap="round" stroke-linejoin="round"/>
  <path d="M29.8281 21L27.7068 23.1213" stroke="white" stroke-width="4" stroke-linecap="round" stroke-linejoin="round"/>
  <path d="M19.8281 31L17.7068 33.1213" stroke="white" stroke-width="4" stroke-linecap="round" stroke-linejoin="round"/>
  <path d="M18 21L20.1213 23.1213" stroke="white" stroke-width="4" stroke-linecap="round" stroke-linejoin="round"/>
  <path d="M28 31L30.1213 33.1213" stroke="white" stroke-width="4" stroke-linecap="round" stroke-linejoin="round"/>
  <path d="M16 27H17.5H19" stroke="white" stroke-width="4" stroke-linecap="round" stroke-linejoin="round"/>
  <path d="M29 27H30.5H32" stroke="white" stroke-width="4" stroke-linecap="round" stroke-linejoin="round"/>
</svg>

<svg width="48" height="48" fill="none" xmlns="http://www.w3.org/2000/svg"><path d="M10 44h28a2 2 0 0 0 2-2V14H30V4H10a2 2 0 0 0-2 2v36a2 2 0 0 0 2 2Z" fill="#2F88FF" stroke="#000" stroke-width="4" stroke-linecap="round" stroke-linejoin="round"/><path d="m30 4 10 10" stroke="#000" stroke-width="4" stroke-linecap="round" stroke-linejoin="round"/><circle cx="24" cy="27" r="5" fill="#43CCF8" stroke="#fff" stroke-width="4"/><path d="M24 19v3M24 32v3M29.828 21l-2.121 2.121M19.828 31l-2.121 2.121M18 21l2.121 2.121M28 31l2.121 2.121M16 27h3M29 27h3" stroke="#fff" stroke-width="4" stroke-linecap="round" stroke-linejoin="round"/></svg>
